lib/assets/home/active.svg

<svg width="48" height="48" viewBox="0 0 48 48" fill="none" xmlns="http://www.w3.org/2000/svg">
<path d="M7 21.5V42H18.5V29.6C18.5 29.5448 18.5448 29.5 18.6 29.5H28.9C28.9552 29.5 29 29.5448 29 29.6V42H41V21.5L24 7L7 21.5Z" fill="#7B7B7B"/>
<path d="M7 42H5V44H7V42ZM7 21.5L5.70211 19.9783L5 20.5772V21.5H7ZM24 7L25.2979 5.47833L24 4.37131L22.7021 5.47833L24 7ZM41 21.5H43V20.5772L42.2979 19.9783L41 21.5ZM41 42V44H43V42H41ZM9 42V21.5H5V42H9ZM8.29789 23.0217L25.2979 8.52167L22.7021 5.47833L5.70211 19.9783L8.29789 23.0217ZM22.7021 8.52167L39.7021 23.0217L42.2979 19.9783L25.2979 5.47833L22.7021 8.52167ZM39 21.5V42H43V21.5H39ZM18.5 40H7V44H18.5V40ZM20.5 42V29.6H16.5V42H20.5ZM18.6 31.5H28.9V27.5H18.6V31.5ZM41 40H29V44H41V40ZM29 40H18.5V44H29V40ZM27 29.6V42H31V29.6H27ZM28.9 31.5C27.8507 31.5 27 30.6494 27 29.6H31C31 28.4402 30.0598 27.5 28.9 27.5V31.5ZM20.5 29.6C20.5 30.6493 19.6493 31.5 18.6 31.5V27.5C17.4402 27.5 16.5 28.4402 16.5 29.6H20.5Z" fill="#EBEBEB"/>
</svg>

<svg width="48" height="48" viewBox="0 0 48 48" fill="none" xmlns="http://www.w3.org/2000/svg"><path d="M7 21.5V42h11.5V29.6a.1.1 0 0 1 .1-.1h10.3a.1.1 0 0 1 .1.1V42h12V21.5L24 7 7 21.5Z" fill="#7B7B7B"/><path d="M7 42H5v2h2v-2Zm0-20.5-1.298-1.522-.702.6v.922h2ZM24 7l1.298-1.522L24 4.371l-1.298 1.107L24 7Zm17 14.5h2v-.923l-.702-.599L41 21.5ZM41 42v2h2v-2h-2ZM9 42V21.5H5V42h4Zm-.702-18.978 17-14.5-2.596-3.044-17 14.5 2.596 3.044Zm14.404-14.5 17 14.5 2.596-3.044-17-14.5-2.596 3.044ZM39 21.5V42h4V21.5h-4ZM18.5 40H7v4h11.5v-4Zm2 2V29.6h-4V42h4Zm-1.9-10.5h10.3v-4H18.6v4ZM41 40H29v4h12v-4Zm-12 0H18.5v4H29v-4Zm-2-10.4V42h4V29.6h-4Zm1.9 1.9a1.9 1.9 0 0 1-1.9-1.9h4a2.1 2.1 0 0 0-2.1-2.1v4Zm-8.4-1.9a1.9 1.9 0 0 1-1.9 1.9v-4a2.1 2.1 0 0 0-2.1 2.1h4Z" fill="#EBEBEB"/></svg>
